X: 1
T: Bella Ragazza   [G]
O: Italia
M: 3/4
L: 1/4
K: G
[BG] |\
"G"[d2B2][BG] | [dB][cA][BG] | "D7"[A2F2][BG] | [c2A2][^c^A] |\
"G"[dB][B2G2]- | [B2G2] [bg] |1 [d'b][b2g2]- | [b2g2] :|2 [d'b][b2g2] | GGG ||
"C"[e2c2][ec] | [ec][fd][ge] | "G"[d2B2][dB] | [dB][ec][fd] |\
"Am"[c2A2][cA] | "D7"[cA][dB][ec] | "G"[B3G3] | "n.c."GGG |
"C"[e2c2][ec] | [ec][fd][ge] | "G"[d2B2][dB] | [dB][ec][dB] |\
"D7"[f2A2][fA] | [fA][ec][fc] | "G"[g3B3] | [G2B,2] |]
